X:3564
L:1/8
Q:1/8=180
M:4/4
K:Amin
 eA A2 (3Bcd eg | dGAG DGBd | eA A2 (3Bcd e^f | gedG eA A2 :| eaag aged | (3Bcd e^f g2 fg | 
 eaag age^f | gedB cA A2 | eaag aged | (3Bcd e^f g2 fg | a^fge fdef | gedB cA A2 |]

